packages/foundations/assets/icons/functional/images/transportation/boat_16.svg

<svg width="16" height="16" viewBox="0 0 16 16" fill="none" xmlns="http://www.w3.org/2000/svg">
<g clip-path="url(#clip0_187_859)">
<path fill-rule="evenodd" clip-rule="evenodd" d="M4.95585 10.2988C5.26443 10.8287 5.60308 11.5016 6.13122 11.5015C6.65935 11.5013 6.99818 10.8275 7.30687 10.2984C7.61556 9.7692 8.38011 9.76916 8.68886 10.2983C8.9976 10.8274 9.27665 11.5015 9.86452 11.5015C10.4524 11.5015 10.7316 10.8271 11.0403 10.2982C11.3489 9.76936 12.1131 9.76917 12.422 10.2979C12.7309 10.8266 13.1557 11.5015 13.5977 11.5015C14.0397 11.5015 14.3979 11.8596 14.3979 12.3015C14.3979 12.7117 14.0523 13.1062 13.5977 13.1014C12.9258 13.0942 12.3035 12.743 11.7307 12.0479C11.1369 12.7461 10.5149 13.0973 9.86452 13.1015C9.21418 13.1057 8.59197 12.7547 7.99788 12.0487C7.37042 12.7505 6.7482 13.1015 6.13122 13.1015C5.51423 13.1015 4.89192 12.7508 4.26428 12.0495C3.65891 12.7508 3.03678 13.1015 2.39788 13.1015C1.95606 13.1015 1.59788 12.7433 1.59788 12.3015C1.59788 11.8596 1.95606 11.5015 2.39788 11.5015C2.84146 11.5015 3.26467 10.8287 3.57325 10.2988C3.88184 9.76901 4.64726 9.76901 4.95585 10.2988ZM7.6728 2.94235C8.6144 3.08387 9.68277 3.84335 10.8779 5.2208L13.4499 4.73689C14.0924 4.61601 14.6487 5.29946 14.2911 5.92233C13.7593 6.8487 13.226 7.77482 12.6911 8.7007C12.4707 9.08358 11.9815 9.21522 11.5987 8.99473C11.2431 8.78999 11.0768 8.30147 11.3046 7.90223C11.5467 7.47796 11.7906 7.05397 12.0363 6.63026L3.19788 8.30147V9.10146C3.19788 9.54329 2.83971 9.90146 2.39788 9.90146C1.98762 9.90146 1.60074 9.5748 1.59788 9.10146C1.59628 8.83481 1.59628 8.56815 1.59788 8.30147C1.59788 7.49303 2.00637 6.90406 2.93618 6.71526C3.16729 6.67273 3.39797 6.62949 3.62823 6.58553C3.86464 5.09176 3.99487 4.23937 4.01892 4.02836C4.05499 3.71183 4.30138 3.40281 4.66455 3.33299C5.38137 3.19519 6.09936 3.05898 6.81853 2.92435C7.09859 2.87934 7.37835 2.8981 7.6728 2.94235ZM7.09469 4.50018C6.8942 4.53677 6.37553 4.63507 5.53868 4.79506L5.32988 6.2648L9.02345 5.56947C8.25147 4.84046 7.78496 4.59268 7.37268 4.51395C7.28873 4.49792 7.22589 4.48007 7.09469 4.50018Z" fill="#1A1C1F"/>
</g>
<defs>
<clipPath id="clip0_187_859">
<rect width="16" height="16" fill="white"/>
</clipPath>
</defs>
</svg>

<svg xmlns="http://www.w3.org/2000/svg" width="16" height="16" fill="none"><g clip-path="url(#a)"><path fill="#1A1C1F" fill-rule="evenodd" d="M4.956 10.299c.308.53.647 1.203 1.175 1.203s.867-.675 1.176-1.204a.8.8 0 0 1 1.382 0c.309.53.588 1.204 1.176 1.204.587 0 .867-.675 1.175-1.204a.8.8 0 0 1 1.382 0c.309.529.734 1.204 1.176 1.204a.8.8 0 0 1 .8.8c0 .41-.346.804-.8.8q-1.009-.012-1.867-1.054-.891 1.048-1.866 1.053-.976.007-1.867-1.052-.942 1.053-1.867 1.053-.926 0-1.867-1.053-.907 1.053-1.866 1.053a.8.8 0 0 1 0-1.6c.443 0 .867-.673 1.175-1.203a.8.8 0 0 1 1.383 0m2.717-7.357q1.412.212 3.205 2.279l2.572-.484c.642-.121 1.199.562.841 1.185q-.798 1.39-1.6 2.779a.8.8 0 0 1-1.092.294.81.81 0 0 1-.294-1.093q.363-.636.731-1.272L3.198 8.301v.8a.8.8 0 1 1-1.6 0 67 67 0 0 1 0-.8c0-.808.408-1.397 1.338-1.586q.347-.064.692-.13.355-2.24.39-2.557a.81.81 0 0 1 .647-.695q1.074-.207 2.154-.409c.28-.045.56-.026.854.018M7.095 4.5q-.301.055-1.556.295l-.21 1.47 3.694-.696c-.772-.729-1.238-.976-1.65-1.055-.084-.016-.147-.034-.278-.014" clip-rule="evenodd"/></g><defs><clipPath id="a"><path fill="#fff" d="M0 0h16v16H0z"/></clipPath></defs></svg>
